design-system/icons/delete_forever--labs-icons.svg

<svg width="21" height="20" viewBox="0 0 21 20" fill="none" xmlns="http://www.w3.org/2000/svg">
<g clip-path="url(#clip0_234_230)">
<mask id="mask0_234_230" style="mask-type:alpha" maskUnits="userSpaceOnUse" x="0" y="0" width="24" height="24">
<rect x="0.25" width="23.0833" height="23.0833" fill="currentColor"/>
</mask>
<g mask="url(#mask0_234_230)">
<path d="M6 17.6987C5.375 17.6987 4.85069 17.4869 4.42708 17.0632C4.00347 16.6396 3.79167 16.1153 3.79167 15.4903V4.44866C3.48611 4.44866 3.22569 4.34102 3.01042 4.12574C2.79514 3.91047 2.6875 3.65005 2.6875 3.34449C2.6875 3.03894 2.79514 2.77852 3.01042 2.56324C3.22569 2.34796 3.48611 2.24033 3.79167 2.24033H7.70833C7.70833 1.96255 7.80556 1.72644 8 1.53199C8.19445 1.33755 8.43056 1.24033 8.70833 1.24033H11.8333C12.1111 1.24033 12.3472 1.33755 12.5417 1.53199C12.7361 1.72644 12.8333 1.96255 12.8333 2.24033H16.75C17.0556 2.24033 17.316 2.34796 17.5313 2.56324C17.7465 2.77852 17.8542 3.03894 17.8542 3.34449C17.8542 3.65005 17.7465 3.91047 17.5313 4.12574C17.316 4.34102 17.0556 4.44866 16.75 4.44866V15.4903C16.75 16.1153 16.5382 16.6396 16.1146 17.0632C15.691 17.4869 15.1667 17.6987 14.5417 17.6987H6ZM10.2708 11.4903L11.7083 12.9278C11.9167 13.1362 12.1736 13.2403 12.4792 13.2403C12.7847 13.2403 13.0417 13.1362 13.25 12.9278C13.4583 12.7195 13.5625 12.4625 13.5625 12.157C13.5625 11.8514 13.4583 11.5945 13.25 11.3862L11.8125 9.94866L13.25 8.51116C13.4583 8.30283 13.5625 8.04588 13.5625 7.74033C13.5625 7.43477 13.4583 7.17783 13.25 6.96949C13.0417 6.76116 12.7847 6.65699 12.4792 6.65699C12.1736 6.65699 11.9167 6.76116 11.7083 6.96949L10.2708 8.40699L8.83333 6.96949C8.625 6.76116 8.36806 6.65699 8.0625 6.65699C7.75695 6.65699 7.5 6.76116 7.29167 6.96949C7.08333 7.17783 6.97917 7.43477 6.97917 7.74033C6.97917 8.04588 7.08333 8.30283 7.29167 8.51116L8.72917 9.94866L7.29167 11.3862C7.08333 11.5945 6.97917 11.8514 6.97917 12.157C6.97917 12.4625 7.08333 12.7195 7.29167 12.9278C7.5 13.1362 7.75695 13.2403 8.0625 13.2403C8.36806 13.2403 8.625 13.1362 8.83333 12.9278L10.2708 11.4903Z" fill="currentColor"/>
</g>
</g>
<defs>
<clipPath id="clip0_234_230">
<rect width="20" height="20" fill="white" transform="translate(0.25)"/>
</clipPath>
</defs>
</svg>

<svg xmlns="http://www.w3.org/2000/svg" width="21" height="20" fill="none" viewBox="0 0 21 20"><g clip-path="url(#a)"><mask id="b" width="24" height="24" x="0" y="0" maskUnits="userSpaceOnUse" style="mask-type:alpha"><path fill="currentColor" d="M.25 0h23.083v23.083H.25z"/></mask><g mask="url(#b)"><path fill="currentColor" d="M6 17.699q-.938 0-1.573-.636-.636-.635-.635-1.573V4.45q-.458 0-.782-.323a1.06 1.06 0 0 1-.322-.782q0-.457.322-.78.324-.324.782-.324h3.916q0-.416.292-.708a.96.96 0 0 1 .708-.292h3.125q.417 0 .709.292.291.291.291.708h3.917q.459 0 .781.323.324.324.323.781 0 .458-.323.782a1.06 1.06 0 0 1-.781.323V15.49q0 .938-.635 1.573-.636.636-1.573.636zm4.27-6.209 1.438 1.438q.313.312.771.312.459 0 .771-.312.313-.313.313-.771t-.313-.77l-1.437-1.438L13.25 8.51q.313-.312.313-.77 0-.459-.313-.772a1.05 1.05 0 0 0-.77-.312q-.459 0-.772.312l-1.437 1.438-1.438-1.438a1.05 1.05 0 0 0-.77-.312q-.459 0-.771.312a1.05 1.05 0 0 0-.313.771q0 .459.313.771L8.729 9.95l-1.437 1.437a1.05 1.05 0 0 0-.313.771q0 .46.313.77.312.314.77.313.459 0 .771-.312z"/></g></g><defs><clipPath id="a"><path fill="#fff" d="M.25 0h20v20h-20z"/></clipPath></defs></svg>
